!!!OTL: Zhuhaiti
!!!ARE: Asia, China, Fujian Xiamen
!! II, 575
!!!SCT: C2000
!!!YEM: Copyright 1995, estate of Helmut Schaffrath.
**kern
*ICvox
*Ivox
*M2/4
*k[f#c#g#d#]
*E:
{4e
8.e
16c#
=1
4f#
4f#}
=2
{4e
8e
8c#
=3
4f#
4f#}
=4
{8c#
8f#
8e
8c#
=5
4e
8e
8c#}
=6
{8c#
8f#
8e
8c#
=7
4e
8e
8c#}
=8
{8f#
8g#
8f#
8f#
=9
4f#
8g#
8f#}
=10
{8f#
8g#
8f#
8f#
=11
4f#
8g#
8f#}
=12
{8e
8e
8c#
8e
=13
4f#
8f#
8e}
=14
{8e
8e
8c#
8e
=15
4f#
8f#
8e}
=16
{8e
4e
8c#
=17
8f#
8g#
8f#
8e}
=18
{8e
4e
8c#
=19
8f#
8g#
8f#
8e}
=20
{8g#
8f#
8f#
8f#
=21
4g#
8g#
8f#}
=22
{8g#
8g#
8g#
8g#
=23
4b
8b
8g#}
=24
{8g#
8g#
8b
8b
=25
4g#
8cc#
8b}
=26
{8c#
8c#
8e
8e
=27
4c#
8f#
8e}
=28
{8b
8cc#
8b
8g#
=29
8f#
8g#
8b
8cc#}
=30
{8b
16g#
16g#
8cc#
8g#
=31
4g#
8cc#
8b}
=32
{8cc#
8ee
8cc#
8ee
=33
4cc#
8ee
8cc#}
=34
{8b
8cc#
8b
8b
=35
4b
8cc#
8b}
=36
{8g#
8cc#
8b
8cc#
=37
4g#
8b
8g#}
=38
{8b
8cc#
8b
8g#
=39
8f#
8g#
8f#
8e}
=40
{8b
8cc#
8b
8g#
=41
8f#
8g#
8f#
8e}
=42
{8f#
8g#
8g#
8f#
=43
8f#
8g#
8g#
8f#
=44
8f#
8f#
8g#
8f#
=45
8f#
8f#
8g#
8f#}
=46
{8g#
8b
8g#
8g#
=47
8g#
8b
8g#
8g#
=48
8b
8cc#
8g#
8g#
=49
8b
8b
8cc#
8b}
=50
{8b
8cc#
8b
8g#
=51
8f#
8g#
8f#
8e
=52
8b
8cc#
8b
8g#
=53
8f#
8g#
8f#
8e}
=54
{8e
8f#
8e
8e
=55
8e
8e
8f#
8e
=56
8e
8f#
8e
8e
=57
8e
8e
8f#
8e}
=58
{8f#
8g#
8g#
8f#
=59
8g#
8f#
8g#
8f#
=60
8f#
8g#
8g#
8f#
=61
8g#
8f#
8g#
8f#}
=62
{8g#
8b
8b
8g#
=63
8b
8g#
8b
8g#}
=64
{8b
8cc#
8cc#
8b
=65
8cc#
8b
8cc#
8b}
=66
{8cc#
8ee
8ee
8cc#
=67
8ee
8cc#
8ee
8cc#}
=68
{8cc#
8ee
8ee
8cc#
=69
8ee
8cc#
8ee
8cc#}
=70
{8cc#
8ee
8ee
8cc#
=71
8ee
8cc#
8ee
8cc#}
=72
{8b
8cc#
8cc#
8b
=73
8cc#
8b
8cc#
8b
=74
8b
8cc#
8cc#
8b
=75
8cc#
8b
8cc#
8b}
=76
{4cc#
4b
=77
4.g#
16c#
16f#
=78
4f#
4e
=79
4.f#}
{16f#
16c#
=80
4f#
4f#
=81
4.f#}
{16c#
16f#
=82
4e
4e
=83
4.e}
{16b
16b
=84
4g#
4b
=85
4.b}
{16f#
16e
=86
4c#
8e
8c#
=87
4.c#}
{16b
16b
=88
4g#
4g#
=89
4.cc#}
{16e
16f#
=90
4e
8f#
8f#
=91
4.f#}
{16e
16f#
=92
4e
4c#
=93
4.e}
{16e
16c#
=94
8c#
8f#
8f#
8e
=95
4e
8g#
8f#}
=96
{8g#
8b
8g#
8g#
=97
4g#
8b
8g#}
=98
{8g#
8b
8g#
8g#
=99
4g#
8g#
8f#}
=100
{8e
8e
8e
8c#
=101
8B
8c#
4e}
=102
{8b
8b
8b
8g#
=103
8f#
8g#
4e
=104
4e
4r}
==
!!!AGN: Haozi, Dahangge
!!!AMT: simple duple
!!!AIN: vox
!!!EED: Helmut Schaffrath
!!!EEV: 1.0
*-
!!!ONB: fixed measure 100 barline on 2004/05/03/ (Craig Sapp)
